src/asset/HomePage/Ellipse3.svg

<svg width="778" height="420" viewBox="0 0 778 420" fill="none" xmlns="http://www.w3.org/2000/svg">
<path d="M789.81 364.818C794.174 318.383 786.607 271.367 767.615 226.918C748.624 182.468 718.646 141.61 679.688 107.077C640.731 72.5448 593.692 45.135 541.721 26.6823C489.749 8.22954 434.044 -0.840391 378.333 0.0795036C322.622 0.999398 268.191 11.8879 218.683 32.0163C169.174 52.1446 125.73 81.0485 91.2592 116.793C56.7879 152.538 32.0842 194.299 18.8017 239.282C5.5191 284.265 -5.77657 338.807 4.49992 385C14.7764 431.193 255.043 418.1 410.401 414.851C559.82 411.727 789.81 364.818 789.81 364.818Z" fill="white" fill-opacity="0.4"/>
</svg>

<svg width="778" height="420" fill="none" xmlns="http://www.w3.org/2000/svg"><path d="M789.81 364.818c4.364-46.435-3.203-93.451-22.195-137.9-18.991-44.45-48.969-85.308-87.927-119.841-38.957-34.532-85.996-61.942-137.967-80.395C489.749 8.23 434.044-.84 378.333.08c-55.711.92-110.142 11.808-159.65 31.936-49.509 20.129-92.953 49.033-127.424 84.777-34.471 35.745-59.175 77.506-72.457 122.489C5.519 284.265-5.777 338.807 4.5 385c10.276 46.193 250.543 33.1 405.901 29.851 149.419-3.124 379.409-50.033 379.409-50.033z" fill="#fff" fill-opacity=".4"/></svg>
